public/cloud-icons/azure/management/performance.svg

<?xml version="1.0" encoding="UTF-8" standalone="no"?>
<!-- Generated by Microsoft Visio, SVG Export Performance.svg Page-1 -->

<svg
   xmlns:dc="http://purl.org/dc/elements/1.1/"
   xmlns:cc="http://creativecommons.org/ns#"
   xmlns:rdf="http://www.w3.org/1999/02/22-rdf-syntax-ns#"
   xmlns:svg="http://www.w3.org/2000/svg"
   xmlns="http://www.w3.org/2000/svg"
   xmlns:sodipodi="http://sodipodi.sourceforge.net/DTD/sodipodi-0.dtd"
   xmlns:inkscape="http://www.inkscape.org/namespaces/inkscape"
   width="0.70865828in"
   height="0.78744781in"
   viewBox="0 0 51.023601 56.696343"
   xml:space="preserve"
   class="st7"
   version="1.1"
   id="svg74"
   sodipodi:docname="Performance.svg"
   style="font-size:12px;overflow:visible;color-interpolation-filters:sRGB;fill:none;fill-rule:evenodd;stroke-linecap:square;stroke-miterlimit:3"
   inkscape:version="0.92.5 (2060ec1f9f, 2020-04-08)"><metadata
   id="metadata78"><rdf:RDF><cc:Work
       rdf:about=""><dc:format>image/svg+xml</dc:format><dc:type
         rdf:resource="http://purl.org/dc/dcmitype/StillImage" /></cc:Work></rdf:RDF></metadata><sodipodi:namedview
   pagecolor="#ffffff"
   bordercolor="#666666"
   borderopacity="1"
   objecttolerance="10"
   gridtolerance="10"
   guidetolerance="10"
   inkscape:pageopacity="0"
   inkscape:pageshadow="2"
   inkscape:window-width="640"
   inkscape:window-height="480"
   id="namedview76"
   showgrid="false"
   inkscape:zoom="1.3087867"
   inkscape:cx="34.015731"
   inkscape:cy="37.80007"
   inkscape:window-x="0"
   inkscape:window-y="0"
   inkscape:window-maximized="0"
   inkscape:current-layer="svg74" />
	<style
   type="text/css"
   id="style2">
	<![CDATA[
		.st1 {fill:#b796f9;stroke:none;stroke-linecap:butt;stroke-width:39.2736}
		.st2 {fill:url(#grad0-9);stroke:none;stroke-linecap:butt;stroke-width:39.2736}
		.st3 {fill:none;stroke:none;stroke-linecap:butt;stroke-width:39.2736}
		.st4 {fill:#0078d4;stroke:none;stroke-linecap:butt;stroke-width:39.2736}
		.st5 {fill:#005ba1;stroke:none;stroke-linecap:butt;stroke-width:39.2736}
		.st6 {fill:#5ea0ef;stroke:none;stroke-linecap:butt;stroke-width:39.2736}
		.st7 {fill:none;fill-rule:evenodd;font-size:12px;overflow:visible;stroke-linecap:square;stroke-miterlimit:3}
	]]>
	</style>

	<defs
   id="Patterns_And_Gradients">
		<linearGradient
   id="grad0-9"
   x1="0"
   y1="122.86216"
   x2="10.854764"
   y2="122.86216"
   gradientTransform="scale(0.9887364,1.0113919)"
   gradientUnits="userSpaceOnUse">
			<stop
   offset="0.005"
   stop-color="#773adc"
   stop-opacity="1"
   id="stop4" />
			<stop
   offset="0.245"
   stop-color="#9255e6"
   stop-opacity="1"
   id="stop6" />
			<stop
   offset="0.5"
   stop-color="#a669ee"
   stop-opacity="1"
   id="stop8" />
			<stop
   offset="0.755"
   stop-color="#b376f2"
   stop-opacity="1"
   id="stop10" />
			<stop
   offset="1"
   stop-color="#b77af4"
   stop-opacity="1"
   id="stop12" />
		</linearGradient>
	</defs>
	<g
   id="g72"
   transform="translate(-39.2736,-39.273847)">
		<title
   id="title16">Page-1</title>
		<g
   id="group13229-1"
   transform="translate(39.2736,-39.2736)">
			<title
   id="title18">Performance.13229</title>
			<g
   id="group13230-2">
				<title
   id="title20">Icon-nameAsset 5</title>
				<g
   id="group13231-3">
					<title
   id="title22">Sheet.13231</title>
					<g
   id="shape13232-4"
   transform="translate(3.13332,-22.0869)">
						<title
   id="title24">Sheet.13232</title>
						<path
   d="M 41.13,104.38 28.07,128.05 14.26,113.72 0,132.51 3.37,135.18 14.64,120.33 29,135.24 44.84,106.52 Z"
   class="st1"
   id="path26"
   inkscape:connector-curvature="0"
   style="fill:#b796f9;stroke:none;stroke-width:39.27360153;stroke-linecap:butt" />
					</g>
					<g
   id="shape13233-6"
   transform="translate(12.196,-34.8328)">
						<title
   id="title29">Sheet.13233</title>
						<ellipse
   cx="5.36625"
   cy="129.75101"
   rx="5.36625"
   ry="5.4892101"
   class="st2"
   id="ellipse31"
   style="fill:url(#grad0-9);stroke:none;stroke-width:39.27360153;stroke-linecap:butt" />
					</g>
					<g
   id="shape13234-10"
   transform="translate(26.7658,-21.1731)">
						<title
   id="title34">Sheet.13234</title>
						<ellipse
   cx="5.36625"
   cy="129.75101"
   rx="5.36625"
   ry="5.4892101"
   class="st3"
   id="ellipse36"
   style="fill:none;stroke:none;stroke-width:39.27360153;stroke-linecap:butt" />
					</g>
					<g
   id="shape13235-12"
   transform="translate(40.2911,-45.7145)">
						<title
   id="title39">Sheet.13235</title>
						<ellipse
   cx="5.36625"
   cy="129.75101"
   rx="5.36625"
   ry="5.4892101"
   class="st3"
   id="ellipse41"
   style="fill:none;stroke:none;stroke-width:39.27360153;stroke-linecap:butt" />
					</g>
					<g
   id="shape13236-14"
   transform="translate(0,-18.8054)">
						<title
   id="title44">Sheet.13236</title>
						<ellipse
   cx="5.36625"
   cy="129.75101"
   rx="5.36625"
   ry="5.4892101"
   class="st3"
   id="ellipse46"
   style="fill:none;stroke:none;stroke-width:39.27360153;stroke-linecap:butt" />
					</g>
					<g
   id="shape13237-16"
   transform="translate(14.6058)">
						<title
   id="title49">Sheet.13237</title>
						<path
   d="m 0,134.3 a 0.926593,0.943792 -180 0 0 0.926571,0.94377 L 7.51,135.24 a 0.926593,0.943792 -180 0 0 0.926571,-0.94377 L 8.43,110.9 A 0.926593,0.943792 -180 0 0 7.503429,109.95623 L 0.93,109.96 a 0.926593,0.943792 -180 0 0 -0.926571,0.94377 z"
   class="st4"
   id="path51"
   inkscape:connector-curvature="0"
   style="fill:#0078d4;stroke:none;stroke-width:39.27360153;stroke-linecap:butt" />
					</g>
					<g
   id="shape13238-18"
   transform="translate(28.0656)">
						<title
   id="title54">Sheet.13238</title>
						<path
   d="m 0,134.3 a 0.926593,0.943792 -180 0 0 0.926571,0.94377 L 7.51,135.24 a 0.926593,0.943792 -180 0 0 0.926571,-0.94377 L 8.43,119.65 A 0.926593,0.943792 -180 0 0 7.503429,118.70623 L 0.93,118.71 a 0.926593,0.943792 -180 0 0 -0.926571,0.94377 z"
   class="st5"
   id="path56"
   inkscape:connector-curvature="0"
   style="fill:#005ba1;stroke:none;stroke-width:39.27360153;stroke-linecap:butt" />
					</g>
					<g
   id="shape13239-20"
   transform="translate(41.5254)">
						<title
   id="title59">Sheet.13239</title>
						<path
   d="m 0,134.3 a 0.926593,0.943792 -180 0 0 0.926571,0.94377 L 7.51,135.24 a 0.926593,0.943792 -180 0 0 0.926571,-0.94377 L 8.43,102.44 A 0.926593,0.943792 -180 0 0 7.503429,101.49623 L 0.93,101.49 a 0.926593,0.943792 -180 0 0 -0.926571,0.94377 z"
   class="st5"
   id="path61"
   inkscape:connector-curvature="0"
   style="fill:#005ba1;stroke:none;stroke-width:39.27360153;stroke-linecap:butt" />
					</g>
					<g
   id="shape13240-22"
   transform="translate(1.14594)">
						<title
   id="title64">Sheet.13240</title>
						<path
   d="m 0,134.3 a 0.926593,0.943792 -180 0 0 0.926571,0.94377 L 7.51,135.24 a 0.926593,0.943792 -180 0 0 0.926571,-0.94377 L 8.43,119.65 A 0.926593,0.943792 -180 0 0 7.503429,118.70623 L 0.93,118.71 a 0.926593,0.943792 -180 0 0 -0.926571,0.94377 z"
   class="st6"
   id="path66"
   inkscape:connector-curvature="0"
   style="fill:#5ea0ef;stroke:none;stroke-width:39.27360153;stroke-linecap:butt" />
					</g>
				</g>
			</g>
		</g>
	</g>
</svg>

<svg xmlns="http://www.w3.org/2000/svg" xml:space="preserve" width="68.031" height="75.595" style="font-size:12px;overflow:visible;color-interpolation-filters:sRGB;fill-rule:evenodd;stroke-linecap:square;stroke-miterlimit:3" viewBox="0 0 51.024 56.696"><defs><linearGradient id="a" x1="0" x2="10.855" y1="122.862" y2="122.862" gradientTransform="scale(.98874 1.0114)" gradientUnits="userSpaceOnUse"><stop offset=".005" stop-color="#773adc"/><stop offset=".245" stop-color="#9255e6"/><stop offset=".5" stop-color="#a669ee"/><stop offset=".755" stop-color="#b376f2"/><stop offset="1" stop-color="#b77af4"/></linearGradient></defs><g transform="translate(-39.274 -39.274)"><title>Page-1</title><g transform="translate(39.274 -39.274)"><title>Performance.13229</title><title>Icon-nameAsset 5</title><title>Sheet.13231</title><g transform="translate(3.133 -22.087)"><title>Sheet.13232</title><path d="m41.13 104.38-13.06 23.67-13.81-14.33L0 132.51l3.37 2.67 11.27-14.85L29 135.24l15.84-28.72Z" style="fill:#b796f9;stroke:none;stroke-width:39.27360153;stroke-linecap:butt"/></g><g transform="translate(12.196 -34.833)"><title>Sheet.13233</title><ellipse cx="5.366" cy="129.751" rx="5.366" ry="5.489" style="fill:url(#a);stroke:none;stroke-width:39.27360153;stroke-linecap:butt"/></g><g transform="translate(26.766 -21.173)"><title>Sheet.13234</title><ellipse cx="5.366" cy="129.751" rx="5.366" ry="5.489" style="fill:none;stroke:none;stroke-width:39.27360153;stroke-linecap:butt"/></g><g transform="translate(40.291 -45.715)"><title>Sheet.13235</title><ellipse cx="5.366" cy="129.751" rx="5.366" ry="5.489" style="fill:none;stroke:none;stroke-width:39.27360153;stroke-linecap:butt"/></g><g transform="translate(0 -18.805)"><title>Sheet.13236</title><ellipse cx="5.366" cy="129.751" rx="5.366" ry="5.489" style="fill:none;stroke:none;stroke-width:39.27360153;stroke-linecap:butt"/></g><g transform="translate(14.606)"><title>Sheet.13237</title><path d="M0 134.3a.927.944-180 0 0 .927.944l6.583-.004a.927.944-180 0 0 .927-.944L8.43 110.9a.927.944-180 0 0-.927-.944l-6.573.004a.927.944-180 0 0-.927.944z" style="fill:#0078d4;stroke:none;stroke-width:39.27360153;stroke-linecap:butt"/></g><g transform="translate(28.066)"><title>Sheet.13238</title><path d="M0 134.3a.927.944-180 0 0 .927.944l6.583-.004a.927.944-180 0 0 .927-.944L8.43 119.65a.927.944-180 0 0-.927-.944l-6.573.004a.927.944-180 0 0-.927.944z" style="fill:#005ba1;stroke:none;stroke-width:39.27360153;stroke-linecap:butt"/></g><g transform="translate(41.525)"><title>Sheet.13239</title><path d="M0 134.3a.927.944-180 0 0 .927.944l6.583-.004a.927.944-180 0 0 .927-.944L8.43 102.44a.927.944-180 0 0-.927-.944L.93 101.49a.927.944-180 0 0-.927.944z" style="fill:#005ba1;stroke:none;stroke-width:39.27360153;stroke-linecap:butt"/></g><g transform="translate(1.146)"><title>Sheet.13240</title><path d="M0 134.3a.927.944-180 0 0 .927.944l6.583-.004a.927.944-180 0 0 .927-.944L8.43 119.65a.927.944-180 0 0-.927-.944l-6.573.004a.927.944-180 0 0-.927.944z" style="fill:#5ea0ef;stroke:none;stroke-width:39.27360153;stroke-linecap:butt"/></g></g></g></svg>
